src/images/icons/auto.svg

<svg width="15" height="15" viewBox="0 0 15 15" fill="none" xmlns="http://www.w3.org/2000/svg">
<path fill-rule="evenodd" clip-rule="evenodd" d="M1.95833 8.30326V13.8449C1.95833 14.3199 1.64167 14.6366 1.16667 14.6366C0.691667 14.6366 0.375 14.3199 0.375 13.8449V7.5116V1.17826C0.375 0.703263 0.691667 0.386597 1.16667 0.386597C1.64167 0.386597 1.95833 0.703263 1.95833 1.17826V6.71993H6.70833V1.17826C6.70833 0.703263 7.025 0.386597 7.5 0.386597C7.975 0.386597 8.29167 0.703263 8.29167 1.17826V6.71993H13.0417V1.17826C13.0417 0.703263 13.3583 0.386597 13.8333 0.386597C14.3083 0.386597 14.625 0.703263 14.625 1.17826V7.5116C14.625 7.9866 14.3083 8.30326 13.8333 8.30326L8.29167 8.30326V13.8449C8.29167 14.3199 7.975 14.6366 7.5 14.6366C7.025 14.6366 6.70833 14.3199 6.70833 13.8449V8.30326H1.95833Z" fill="black"/>
<mask id="mask0" mask-type="alpha" maskUnits="userSpaceOnUse" x="0" y="0" width="15" height="15">
<path fill-rule="evenodd" clip-rule="evenodd" d="M1.95833 8.30326V13.8449C1.95833 14.3199 1.64167 14.6366 1.16667 14.6366C0.691667 14.6366 0.375 14.3199 0.375 13.8449V7.5116V1.17826C0.375 0.703263 0.691667 0.386597 1.16667 0.386597C1.64167 0.386597 1.95833 0.703263 1.95833 1.17826V6.71993H6.70833V1.17826C6.70833 0.703263 7.025 0.386597 7.5 0.386597C7.975 0.386597 8.29167 0.703263 8.29167 1.17826V6.71993H13.0417V1.17826C13.0417 0.703263 13.3583 0.386597 13.8333 0.386597C14.3083 0.386597 14.625 0.703263 14.625 1.17826V7.5116C14.625 7.9866 14.3083 8.30326 13.8333 8.30326L8.29167 8.30326V13.8449C8.29167 14.3199 7.975 14.6366 7.5 14.6366C7.025 14.6366 6.70833 14.3199 6.70833 13.8449V8.30326H1.95833Z" fill="white"/>
</mask>
<g mask="url(#mask0)">
</g>
</svg>

<svg xmlns="http://www.w3.org/2000/svg" width="15" height="15" fill="none"><path fill-rule="evenodd" d="M1.958 8.303v5.542c0 .475-.317.792-.792.792s-.792-.317-.792-.792V1.178c0-.475.317-.792.792-.792s.792.317.792.792V6.72h4.75V1.178c0-.475.317-.792.792-.792s.792.317.792.792V6.72h4.75V1.178c0-.475.317-.792.792-.792s.792.317.792.792v6.333c0 .475-.317.792-.792.792H8.292v5.542c0 .475-.317.792-.792.792s-.792-.317-.792-.792V8.303h-4.75z" fill="#000"/></svg>
